vendor/shopware/storefront/Resources/app/storefront/dist/assets/icon/default/shop.svg

<svg xmlns="http://www.w3.org/2000/svg" width="24" height="24" viewBox="0 0 24 24">
  <path fill="#758CA3" fill-rule="evenodd" d="M8,22 L11,22 L11,15 L8,15 L8,22 Z M16,22 L16,15 L13,15 L13,22 L16,22 Z M3,10.5839563 L3,22 L6,22 L6,15 C6,13.8954305 6.8954305,13 8,13 L16,13 C17.1045695,13 18,13.8954305 18,15 L18,22 L21,22 L21,10.5839563 C20.3875377,10.8515525 19.7111047,11 19,11 C17.6372733,11 16.4018753,10.4548408 15.5,9.5707164 C14.5981247,10.4548408 13.3627267,11 12,11 C10.6372733,11 9.40187534,10.4548408 8.5,9.5707164 C7.59812466,10.4548408 6.3627267,11 5,11 C4.28889529,11 3.61246235,10.8515525 3,10.5839563 Z M1,9.00048745 C0.372089484,8.16474342 0,7.12582479 0,6 L0,4.41421356 C0,3.61856409 0.316070521,2.85550235 0.878679656,2.29289322 L2.29289322,0.878679656 C2.85550235,0.316070521 3.61856409,0 4.41421356,0 L19.5857864,0 C20.3814359,1.0658141e-14 21.1444976,0.316070521 21.7071068,0.878679656 L23.1213203,2.29289322 C23.6839295,2.85550235 24,3.61856409 24,4.41421356 L24,6 C24,7.12582479 23.6279105,8.16474342 23,9.00048745 L23,22 C23,23.1045695 22.1045695,24 21,24 L3,24 C1.8954305,24 1,23.1045695 1,22 L1,9.00048745 Z M15,6 C15,5.72385763 15.2238576,5.5 15.5,5.5 C15.7761424,5.5 16,5.72385763 16,6 C16,7.65685425 17.3431458,9 19,9 C20.6568542,9 22,7.65685425 22,6 L22,4.41421356 C22,4.14899707 21.8946432,3.89464316 21.7071068,3.70710678 L20.2928932,2.29289322 C20.1053568,2.10535684 19.8510029,2 19.5857864,2 L4.41421356,2 C4.14899707,2 3.89464316,2.10535684 3.70710678,2.29289322 L2.29289322,3.70710678 C2.10535684,3.89464316 2,4.14899707 2,4.41421356 L2,6 C2,7.65685425 3.34314575,9 5,9 C6.65685425,9 8,7.65685425 8,6 C8,5.72385763 8.22385763,5.5 8.5,5.5 C8.77614237,5.5 9,5.72385763 9,6 C9,7.65685425 10.3431458,9 12,9 C13.6568542,9 15,7.65685425 15,6 Z"/>
</svg>

<svg xmlns="http://www.w3.org/2000/svg" width="24" height="24" viewBox="0 0 24 24"><path fill="#758CA3" fill-rule="evenodd" d="M8 22h3v-7H8v7zm8 0v-7h-3v7h3zM3 10.584V22h3v-7c0-1.1046.8954-2 2-2h8c1.1046 0 2 .8954 2 2v7h3V10.584A4.9831 4.9831 0 0 1 19 11c-1.3627 0-2.5981-.5452-3.5-1.4293C14.5981 10.4548 13.3627 11 12 11c-1.3627 0-2.5981-.5452-3.5-1.4293C7.5981 10.4548 6.3627 11 5 11a4.9831 4.9831 0 0 1-2-.416zM1 9.0005A4.9779 4.9779 0 0 1 0 6V4.4142A3 3 0 0 1 .8787 2.293L2.2929.8787A3 3 0 0 1 4.4142 0h15.1716a3 3 0 0 1 2.1213.8787l1.4142 1.4142A3 3 0 0 1 24 4.4142V6a4.9779 4.9779 0 0 1-1 3.0005V22c0 1.1046-.8954 2-2 2H3c-1.1046 0-2-.8954-2-2V9.0005zM15 6a.5.5 0 1 1 1 0c0 1.6569 1.3431 3 3 3s3-1.3431 3-3V4.4142a1 1 0 0 0-.2929-.707L20.293 2.2928A1 1 0 0 0 19.5858 2H4.4142a1 1 0 0 0-.707.2929L2.2928 3.707A1 1 0 0 0 2 4.4142V6c0 1.6569 1.3431 3 3 3s3-1.3431 3-3a.5.5 0 0 1 1 0c0 1.6569 1.3431 3 3 3s3-1.3431 3-3z"/></svg>
